gos-pohoronq/img/name.svg

<svg width="30" height="30" viewBox="0 0 30 30" fill="none" xmlns="http://www.w3.org/2000/svg">
<path d="M25.6403 24.0516C25.2606 23.3578 25.7457 22.6547 26.5731 21.7828C27.8856 20.3977 29.3153 17.1891 27.9887 13.9289C27.9957 13.9102 27.7262 13.3617 27.7356 13.343L27.1872 13.3148C27.0114 13.2891 21.009 13.2773 14.9997 13.2773C8.99028 13.2773 2.98794 13.2891 2.81215 13.3148C2.81215 13.3148 2.00356 13.9102 2.01059 13.9266C0.68403 17.1867 2.11372 20.3953 3.42622 21.7805C4.25356 22.6523 4.73872 23.3578 4.35903 24.0492C3.99106 24.7219 2.89184 24.8203 2.89184 24.8203C2.89184 24.8203 3.14497 25.5094 3.75669 25.8797C4.32153 26.2219 5.01528 26.3039 5.49575 26.3156C5.49575 26.3156 7.37075 28.9102 12.2739 28.9102H17.7301C22.6332 28.9102 24.5082 26.3156 24.5082 26.3156C24.9887 26.3039 25.6825 26.2242 26.2473 25.8797C26.859 25.5094 27.1122 24.8203 27.1122 24.8203C27.1122 24.8203 26.0106 24.7242 25.6403 24.0516Z" fill="#AB872F"/>
<path d="M14.998 28.9125V26.0321L23.7121 25.343L24.5043 26.318C24.5043 26.318 22.6293 28.9125 17.7262 28.9125H14.998Z" fill="url(#paint0_radial_34:4037)"/>
<path d="M24.4828 25.0617C23.1773 23.0789 26.0718 22.3406 26.0718 22.3406L26.0742 22.3429C25.5703 22.9687 25.3429 23.5148 25.6382 24.0515C26.0062 24.7242 27.1054 24.8226 27.1054 24.8226C27.1054 24.8226 25.6101 26.1539 24.4828 25.0617Z" fill="url(#paint1_radial_34:4037)"/>
<path d="M27.9965 13.9266C29.2926 17.0836 27.9285 20.3344 26.6512 21.7055C26.4754 21.893 25.7324 22.6243 25.5637 23.2055C25.5637 23.2055 22.6527 19.1485 21.7855 16.7625C21.6097 16.2821 21.4504 15.7852 21.4293 15.2743C21.4129 14.8899 21.4738 14.4329 21.6941 14.1071C21.966 13.7063 27.8418 13.5891 27.8418 13.5891C27.8418 13.5938 27.9965 13.9266 27.9965 13.9266Z" fill="url(#paint2_radial_34:4037)"/>
<path d="M2.01079 13.9266C0.717044 17.0836 2.07876 20.3344 3.35611 21.7055C3.53189 21.893 4.27486 22.6243 4.44361 23.2055C4.44361 23.2055 7.35454 19.1485 8.22173 16.7625C8.39751 16.2821 8.55689 15.7852 8.57798 15.2743C8.59439 14.8899 8.53345 14.4329 8.31314 14.1071C8.04126 13.7063 7.72486 13.8141 7.26548 13.8141C6.38657 13.8141 2.54283 13.5891 2.24517 13.5891C2.24517 13.5938 2.01079 13.9266 2.01079 13.9266Z" fill="url(#paint3_radial_34:4037)"/>
<path d="M15.0092 28.9125V26.0321L6.29512 25.343L5.50293 26.318C5.50293 26.318 7.37793 28.9125 12.2811 28.9125H15.0092Z" fill="url(#paint4_radial_34:4037)"/>
<path d="M5.52402 25.0617C6.82949 23.0789 3.93496 22.3406 3.93496 22.3406L3.93262 22.3429C4.43652 22.9687 4.66387 23.5148 4.36855 24.0515C4.00059 24.7242 2.90137 24.8226 2.90137 24.8226C2.90137 24.8226 4.39668 26.1539 5.52402 25.0617Z" fill="url(#paint5_radial_34:4037)"/>
<path d="M23.3316 15.0867H6.66758C4.86992 15.0867 3.40039 16.6523 3.40039 18.5671C3.40039 20.482 4.86992 22.0476 6.66758 22.0476H23.334C25.1316 22.0476 26.6012 20.482 26.6012 18.5671C26.6012 16.6523 25.1293 15.0867 23.3316 15.0867Z" fill="#C48E6A"/>
<path d="M14.9994 3.08203C9.69316 3.08203 4.77832 8.75625 4.77832 16.9242C4.77832 25.0477 9.84316 29.0625 14.9994 29.0625C20.1557 29.0625 25.2205 25.0477 25.2205 16.9242C25.2205 8.75859 20.3057 3.08203 14.9994 3.08203Z" fill="#E0BB95"/>
<path d="M16.1761 20.4586C16.1446 20.4457 16.1115 20.437 16.0777 20.4329H13.9214C13.8886 20.4375 13.8558 20.4446 13.823 20.4586C13.6285 20.5383 13.5207 20.7399 13.6121 20.9555C13.7058 21.1711 14.1347 21.7758 14.9996 21.7758C15.8644 21.7758 16.2933 21.1711 16.3871 20.9555C16.4808 20.7399 16.373 20.5383 16.1761 20.4586Z" fill="#C48E6A"/>
<path d="M17.5664 22.9007C16.5961 23.4772 13.411 23.4772 12.4407 22.9007C11.8828 22.5679 11.3133 23.0765 11.5453 23.5827C11.7727 24.0796 13.5094 25.2374 15.0118 25.2374C16.5141 25.2374 18.2274 24.0819 18.4571 23.5827C18.6868 23.0765 18.1243 22.5702 17.5664 22.9007Z" fill="#6D4C41"/>
<path d="M10.0545 19.1672C10.8726 19.1672 11.5357 18.4799 11.5357 17.6321C11.5357 16.7842 10.8726 16.0969 10.0545 16.0969C9.23642 16.0969 8.57324 16.7842 8.57324 17.6321C8.57324 18.4799 9.23642 19.1672 10.0545 19.1672Z" fill="#5D4037"/>
<path d="M19.9451 19.1672C20.7632 19.1672 21.4264 18.4799 21.4264 17.6321C21.4264 16.7842 20.7632 16.0969 19.9451 16.0969C19.127 16.0969 18.4639 16.7842 18.4639 17.6321C18.4639 18.4799 19.127 19.1672 19.9451 19.1672Z" fill="#5D4037"/>
<path d="M12.2549 14.8759C11.9737 14.5032 11.3198 13.9595 10.0541 13.9595C8.78852 13.9595 8.13462 14.5032 7.85337 14.8759C7.72915 15.0423 7.75962 15.2321 7.84634 15.347C7.92602 15.4548 8.16274 15.5532 8.42524 15.4642C8.68774 15.3751 9.19868 15.1103 10.0541 15.1056C10.9096 15.1126 11.4229 15.3751 11.6831 15.4642C11.9432 15.5532 12.1823 15.4548 12.262 15.347C12.3487 15.2321 12.3791 15.0423 12.2549 14.8759Z" fill="#AB872F"/>
<path d="M22.1475 14.8759C21.8663 14.5032 21.2124 13.9595 19.9467 13.9595C18.6811 13.9595 18.0272 14.5032 17.7459 14.8759C17.6217 15.0423 17.6522 15.2321 17.7389 15.347C17.8186 15.4548 18.0553 15.5532 18.3178 15.4642C18.5803 15.3751 19.0913 15.1103 19.9467 15.1056C20.8022 15.1126 21.3155 15.3751 21.5756 15.4642C21.8381 15.5532 22.0748 15.4548 22.1545 15.347C22.2389 15.2321 22.2717 15.0423 22.1475 14.8759Z" fill="#AB872F"/>
<path d="M27.2199 7.36177C26.4746 6.23443 24.8082 4.72506 23.3105 4.62662C23.0714 3.18756 21.5293 1.96881 20.0386 1.49537C16.005 0.218025 13.3777 1.65006 11.9691 2.41881C11.6761 2.57818 9.78238 3.62818 8.45816 2.87584C7.62847 2.40474 7.64488 1.1274 7.64488 1.1274C7.64488 1.1274 5.04566 2.11646 5.93394 4.8774C5.04097 4.9149 3.8691 5.2899 3.25035 6.54381C2.51207 8.03677 2.77457 9.28599 2.98785 9.88365C2.2191 10.5352 1.25347 11.9251 1.91675 13.7274C2.41597 15.0844 4.40816 15.7079 4.40816 15.7079C4.26753 18.1501 4.72222 19.6547 4.96363 20.2618C5.00582 20.3672 5.15816 20.3579 5.18394 20.2477C5.48394 19.0383 6.51519 14.8219 6.41207 14.086C6.41207 14.086 9.87144 13.3993 13.1714 10.9711C13.8441 10.4766 14.5707 10.0547 15.3441 9.74771C19.4878 8.09771 20.355 10.9126 20.355 10.9126C20.355 10.9126 23.2261 10.3618 24.0933 14.3508C24.4191 15.8461 24.6394 18.2391 24.8246 19.9126C24.8386 20.0297 24.998 20.0555 25.0449 19.9454C25.3355 19.2821 25.9144 17.9626 26.0527 16.6196C26.1019 16.1461 27.3769 15.5204 27.923 13.4907C28.6589 10.779 27.7566 8.17506 27.2199 7.36177Z" fill="#AB872F"/>
<path d="M26.0434 16.6291C26.0926 16.1556 27.3676 15.5298 27.9137 13.5001C27.9723 13.2845 28.0215 13.0642 28.066 12.8439C28.5113 10.3759 27.7121 8.11187 27.2152 7.36187C26.5262 6.32124 25.0496 4.95483 23.648 4.67593C23.5262 4.65952 23.4066 4.64546 23.2941 4.63843C23.2941 4.63843 23.3949 5.29233 23.1301 5.81499C22.7879 6.49233 22.0918 6.65171 22.0918 6.65171C25.7457 10.3056 25.4855 13.3619 26.0434 16.6291Z" fill="url(#paint6_radial_34:4037)"/>
<path d="M12.85 1.95698C12.5172 2.1187 12.2219 2.28042 11.9664 2.4187C11.6735 2.57808 9.77971 3.62808 8.4555 2.87573C7.63987 2.41167 7.63987 1.17417 7.64221 1.12964C7.26721 1.60776 6.13284 5.0273 9.44924 5.25464C10.8789 5.35308 11.7625 4.1062 12.2828 3.04917C12.4727 2.66714 12.7703 2.10698 12.85 1.95698Z" fill="url(#paint7_radial_34:4037)"/>
<path d="M19.6212 1.37109C21.8525 1.97578 22.9423 3.11015 23.3056 4.6289C23.4134 5.07421 23.54 9.22734 15.6111 4.50703C12.6626 2.75156 13.4666 1.65234 13.8134 1.52812C15.1611 1.03828 17.1205 0.693745 19.6212 1.37109Z" fill="url(#paint8_radial_34:4037)"/>
<path d="M7.63336 1.12969C7.62867 1.13203 7.62399 1.13437 7.61461 1.13672H7.61227C7.32867 1.25625 5.09742 2.2875 5.9318 4.87266L8.30602 5.25469C6.20602 3.12891 7.64274 1.125 7.64274 1.125L7.63336 1.12969Z" fill="url(#paint9_radial_34:4037)"/>
<path d="M7.39883 5.11172L5.93164 4.875C5.8754 4.875 5.67852 4.89375 5.57305 4.90781C4.74805 5.02266 3.77305 5.44922 3.24805 6.54375C2.68086 7.72031 2.69727 8.73047 2.84961 9.40547C2.89415 9.63281 2.98555 9.88594 2.98555 9.88594C2.98555 9.88594 3.71211 9.19688 5.43946 9.15234L7.39883 5.11172Z" fill="url(#paint10_radial_34:4037)"/>
<path d="M2.91527 9.94224C2.19339 10.5844 1.21839 12.0141 1.93793 13.786C2.47933 15.1243 4.40589 15.7055 4.40589 15.7055C4.40589 15.7125 4.79027 15.825 4.98949 15.825L5.43949 9.14771C4.51605 9.14771 3.63011 9.42427 3.05589 9.82271C3.06058 9.83677 2.91293 9.93286 2.91527 9.94224Z" fill="url(#paint11_radial_34:4037)"/>
<defs>
<radialGradient id="paint0_radial_34:4037" cx="0" cy="0" r="1" gradientUnits="userSpaceOnUse" gradientTransform="translate(19.4472 24.7536) scale(7.14117 3.50774)">
<stop offset="0.728" stop-color="#BFA055" stop-opacity="0"/>
<stop offset="1" stop-color="#BFA055"/>
</radialGradient>
<radialGradient id="paint1_radial_34:4037" cx="0" cy="0" r="1" gradientUnits="userSpaceOnUse" gradientTransform="translate(26.4804 23.6909) rotate(154.924) scale(2.11021 1.56547)">
<stop offset="0.663" stop-color="#BFA055"/>
<stop offset="1" stop-color="#BFA055" stop-opacity="0"/>
</radialGradient>
<radialGradient id="paint2_radial_34:4037" cx="0" cy="0" r="1" gradientUnits="userSpaceOnUse" gradientTransform="translate(21.0119 17.7222) rotate(-94.2783) scale(9.26941 7.72545)">
<stop offset="0.725" stop-color="#BFA055" stop-opacity="0"/>
<stop offset="1" stop-color="#BFA055"/>
</radialGradient>
<radialGradient id="paint3_radial_34:4037" cx="0" cy="0" r="1" gradientUnits="userSpaceOnUse" gradientTransform="translate(8.99529 17.7221) rotate(-85.7217) scale(9.26941 7.72545)">
<stop offset="0.725" stop-color="#BFA055" stop-opacity="0"/>
<stop offset="1" stop-color="#BFA055"/>
</radialGradient>
<radialGradient id="paint4_radial_34:4037" cx="0" cy="0" r="1" gradientUnits="userSpaceOnUse" gradientTransform="translate(10.5598 24.7536) rotate(180) scale(7.14117 3.50774)">
<stop offset="0.728" stop-color="#BFA055" stop-opacity="0"/>
<stop offset="1" stop-color="#BFA055"/>
</radialGradient>
<radialGradient id="paint5_radial_34:4037" cx="0" cy="0" r="1" gradientUnits="userSpaceOnUse" gradientTransform="translate(3.52648 23.6912) rotate(25.0761) scale(2.11021 1.56547)">
<stop offset="0.663" stop-color="#BFA055"/>
<stop offset="1" stop-color="#BFA055" stop-opacity="0"/>
</radialGradient>
<radialGradient id="paint6_radial_34:4037" cx="0" cy="0" r="1" gradientUnits="userSpaceOnUse" gradientTransform="translate(20.4938 12.8316) rotate(72.0851) scale(10.8652 8.06174)">
<stop offset="0.699" stop-color="#BFA055" stop-opacity="0"/>
<stop offset="1" stop-color="#BFA055"/>
</radialGradient>
<radialGradient id="paint7_radial_34:4037" cx="0" cy="0" r="1" gradientUnits="userSpaceOnUse" gradientTransform="translate(9.90085 0.98479) rotate(28.2026) scale(2.84889 3.37795)">
<stop offset="0.58" stop-color="#BFA055"/>
<stop offset="1" stop-color="#BFA055" stop-opacity="0"/>
</radialGradient>
<radialGradient id="paint8_radial_34:4037" cx="0" cy="0" r="1" gradientUnits="userSpaceOnUse" gradientTransform="translate(16.268 6.15907) rotate(-157.19) scale(8.90992 5.00741)">
<stop offset="0.699" stop-color="#BFA055" stop-opacity="0"/>
<stop offset="1" stop-color="#BFA055"/>
</radialGradient>
<radialGradient id="paint9_radial_34:4037" cx="0" cy="0" r="1" gradientUnits="userSpaceOnUse" gradientTransform="translate(8.75766 3.58356) scale(2.61492 3.19883)">
<stop offset="0.702" stop-color="#BFA055" stop-opacity="0"/>
<stop offset="1" stop-color="#BFA055"/>
</radialGradient>
<radialGradient id="paint10_radial_34:4037" cx="0" cy="0" r="1" gradientUnits="userSpaceOnUse" gradientTransform="translate(8.39762 8.1993) rotate(-164.942) scale(4.90448 4.5897)">
<stop offset="0.66" stop-color="#BFA055" stop-opacity="0"/>
<stop offset="1" stop-color="#BFA055"/>
</radialGradient>
<radialGradient id="paint11_radial_34:4037" cx="0" cy="0" r="1" gradientUnits="userSpaceOnUse" gradientTransform="translate(7.23486 12.935) rotate(7.83355) scale(5.14915 7.2354)">
<stop offset="0.598" stop-color="#BFA055" stop-opacity="0"/>
<stop offset="1" stop-color="#BFA055"/>
</radialGradient>
</defs>
</svg>

<svg width="30" height="30" fill="none" xmlns="http://www.w3.org/2000/svg"><path d="M25.64 24.052c-.38-.694.106-1.397.933-2.27 1.313-1.384 2.742-4.593 1.416-7.853.007-.019-.263-.567-.253-.586l-.549-.028c-.176-.026-6.178-.038-12.187-.038-6.01 0-12.012.012-12.188.038 0 0-.808.595-.801.612-1.327 3.26.103 6.468 1.415 7.854.828.871 1.313 1.577.933 2.268-.368.673-1.467.771-1.467.771s.253.69.865 1.06c.565.342 1.258.424 1.739.436 0 0 1.875 2.594 6.778 2.594h5.456c4.903 0 6.778-2.594 6.778-2.594.48-.012 1.175-.092 1.74-.436.611-.37.864-1.06.864-1.06s-1.101-.096-1.472-.768z" fill="#AB872F"/><path d="M14.998 28.913v-2.88l8.714-.69.792.975s-1.875 2.595-6.778 2.595h-2.728z" fill="url(#paint0_radial_34:4037)"/><path d="M24.483 25.062c-1.306-1.983 1.589-2.721 1.589-2.721l.002.002c-.504.626-.731 1.172-.436 1.709.368.672 1.467.77 1.467.77s-1.495 1.332-2.622.24z" fill="url(#paint1_radial_34:4037)"/><path d="M27.997 13.927c1.296 3.157-.069 6.407-1.346 7.779-.176.187-.919.918-1.087 1.5 0 0-2.911-4.058-3.779-6.444-.175-.48-.335-.977-.356-1.488-.016-.384.045-.841.265-1.167.272-.4 6.148-.518 6.148-.518 0 .005.155.338.155.338z" fill="url(#paint2_radial_34:4037)"/><path d="M2.01 13.927c-1.293 3.157.069 6.407 1.346 7.779.176.187.919.918 1.088 1.5 0 0 2.91-4.058 3.778-6.444.176-.48.335-.977.356-1.488.016-.384-.045-.841-.265-1.167-.272-.4-.588-.293-1.048-.293-.878 0-4.722-.225-5.02-.225 0 .005-.234.338-.234.338z" fill="url(#paint3_radial_34:4037)"/><path d="M15.01 28.913v-2.88l-8.715-.69-.792.975s1.875 2.595 6.778 2.595h2.728z" fill="url(#paint4_radial_34:4037)"/><path d="M5.524 25.062c1.305-1.983-1.589-2.721-1.589-2.721l-.002.002c.504.626.73 1.172.436 1.709-.368.672-1.468.77-1.468.77s1.496 1.332 2.623.24z" fill="url(#paint5_radial_34:4037)"/><path d="M23.332 15.087H6.668c-1.798 0-3.268 1.565-3.268 3.48s1.47 3.48 3.268 3.48h16.666c1.798 0 3.267-1.565 3.267-3.48s-1.472-3.48-3.27-3.48z" fill="#C48E6A"/><path d="M15 3.082c-5.307 0-10.222 5.674-10.222 13.842 0 8.124 5.065 12.139 10.221 12.139 5.157 0 10.222-4.015 10.222-12.139 0-8.165-4.915-13.842-10.222-13.842z" fill="#E0BB95"/><path d="M16.176 20.459a.38.38 0 00-.098-.026H13.92a.38.38 0 00-.098.026c-.194.08-.302.28-.21.497.093.215.522.82 1.387.82.864 0 1.293-.605 1.387-.82.094-.216-.014-.418-.21-.497z" fill="#C48E6A"/><path d="M17.566 22.9c-.97.577-4.155.577-5.125 0-.558-.332-1.128.177-.896.683.228.497 1.964 1.654 3.467 1.654 1.502 0 3.215-1.155 3.445-1.654.23-.506-.333-1.013-.89-.682z" fill="#6D4C41"/><path d="M10.055 19.167c.818 0 1.48-.687 1.48-1.535 0-.848-.662-1.535-1.48-1.535-.819 0-1.482.687-1.482 1.535 0 .848.663 1.535 1.482 1.535zm9.89 0c.818 0 1.481-.687 1.481-1.535 0-.848-.663-1.535-1.48-1.535-.819 0-1.482.687-1.482 1.535 0 .848.663 1.535 1.481 1.535z" fill="#5D4037"/><path d="M12.255 14.876c-.281-.373-.935-.916-2.2-.916-1.266 0-1.92.543-2.202.916a.39.39 0 00-.007.471c.08.108.317.206.58.117.262-.089.773-.354 1.628-.358.856.007 1.369.27 1.63.358.26.09.498-.01.578-.117a.39.39 0 00-.007-.471zm9.893 0c-.282-.373-.936-.916-2.201-.916-1.266 0-1.92.543-2.201.916a.39.39 0 00-.007.471c.08.108.316.206.579.117.262-.089.773-.354 1.629-.358.855.007 1.369.27 1.629.358.262.09.499-.01.578-.117a.393.393 0 00-.006-.471z" fill="#AB872F"/><path d="M27.22 7.362c-.745-1.128-2.412-2.637-3.91-2.735-.239-1.44-1.78-2.658-3.271-3.132-4.034-1.277-6.661.155-8.07.924-.293.16-2.187 1.21-3.51.457-.83-.471-.814-1.749-.814-1.749s-2.6.99-1.711 3.75c-.893.038-2.065.413-2.684 1.667-.738 1.493-.475 2.742-.262 3.34-.769.651-1.735 2.041-1.071 3.843.499 1.357 2.491 1.98 2.491 1.98-.14 2.443.314 3.948.556 4.555.042.105.194.096.22-.014.3-1.21 1.331-5.426 1.228-6.162 0 0 3.46-.687 6.76-3.115a9.779 9.779 0 012.172-1.223c4.144-1.65 5.011 1.165 5.011 1.165s2.871-.551 3.738 3.438c.326 1.495.546 3.888.732 5.562.014.117.173.142.22.032.29-.663.87-1.982 1.008-3.325.049-.474 1.324-1.1 1.87-3.13.736-2.711-.166-5.315-.703-6.128z" fill="#AB872F"/><path d="M26.043 16.63c.05-.474 1.325-1.1 1.87-3.13a9.75 9.75 0 00.153-.656c.445-2.468-.354-4.732-.85-5.482-.69-1.04-2.166-2.407-3.568-2.686a5.056 5.056 0 00-.354-.038s.1.654-.164 1.177c-.342.677-1.038.837-1.038.837 3.654 3.654 3.393 6.71 3.951 9.977z" fill="url(#paint6_radial_34:4037)"/><path d="M12.85 1.957c-.333.162-.628.323-.884.462-.292.16-2.186 1.21-3.51.457-.816-.464-.816-1.702-.814-1.746-.375.478-1.51 3.897 1.807 4.125 1.43.098 2.313-1.149 2.834-2.206.19-.382.487-.942.567-1.092z" fill="url(#paint7_radial_34:4037)"/><path d="M19.621 1.371c2.232.605 3.321 1.74 3.685 3.258.107.445.234 4.598-7.695-.122-2.948-1.755-2.144-2.855-1.798-2.979 1.348-.49 3.307-.834 5.808-.157z" fill="url(#paint8_radial_34:4037)"/><path d="M7.633 1.13l-.018.007h-.003c-.283.12-2.515 1.15-1.68 3.736l2.374.382c-2.1-2.126-.663-4.13-.663-4.13l-.01.005z" fill="url(#paint9_radial_34:4037)"/><path d="M7.399 5.112l-1.467-.237c-.057 0-.253.019-.359.033-.825.115-1.8.541-2.325 1.636-.567 1.176-.55 2.186-.398 2.861.044.228.136.48.136.48s.726-.688 2.453-.733l1.96-4.04z" fill="url(#paint10_radial_34:4037)"/><path d="M2.915 9.942c-.722.642-1.697 2.072-.977 3.844.541 1.338 2.468 1.92 2.468 1.92 0 .007.384.119.583.119l.45-6.677c-.923 0-1.809.276-2.383.675.005.014-.143.11-.14.12z" fill="url(#paint11_radial_34:4037)"/><defs><radialGradient id="paint0_radial_34:4037" cx="0" cy="0" r="1" gradientUnits="userSpaceOnUse" gradientTransform="matrix(7.14117 0 0 3.50774 19.447 24.754)"><stop offset=".728" stop-color="#BFA055" stop-opacity="0"/><stop offset="1" stop-color="#BFA055"/></radialGradient><radialGradient id="paint1_radial_34:4037" cx="0" cy="0" r="1" gradientUnits="userSpaceOnUse" gradientTransform="rotate(154.924 10.606 14.79) scale(2.11021 1.56547)"><stop offset=".663" stop-color="#BFA055"/><stop offset="1" stop-color="#BFA055" stop-opacity="0"/></radialGradient><radialGradient id="paint2_radial_34:4037" cx="0" cy="0" r="1" gradientUnits="userSpaceOnUse" gradientTransform="matrix(-.6915 -9.24358 7.70392 -.57633 21.012 17.722)"><stop offset=".725" stop-color="#BFA055" stop-opacity="0"/><stop offset="1" stop-color="#BFA055"/></radialGradient><radialGradient id="paint3_radial_34:4037" cx="0" cy="0" r="1" gradientUnits="userSpaceOnUse" gradientTransform="matrix(.6915 -9.24358 7.70392 .57633 8.995 17.722)"><stop offset=".725" stop-color="#BFA055" stop-opacity="0"/><stop offset="1" stop-color="#BFA055"/></radialGradient><radialGradient id="paint4_radial_34:4037" cx="0" cy="0" r="1" gradientUnits="userSpaceOnUse" gradientTransform="matrix(-7.14117 0 0 -3.50774 10.56 24.754)"><stop offset=".728" stop-color="#BFA055" stop-opacity="0"/><stop offset="1" stop-color="#BFA055"/></radialGradient><radialGradient id="paint5_radial_34:4037" cx="0" cy="0" r="1" gradientUnits="userSpaceOnUse" gradientTransform="matrix(1.91131 .89435 -.66348 1.41792 3.526 23.691)"><stop offset=".663" stop-color="#BFA055"/><stop offset="1" stop-color="#BFA055" stop-opacity="0"/></radialGradient><radialGradient id="paint6_radial_34:4037" cx="0" cy="0" r="1" gradientUnits="userSpaceOnUse" gradientTransform="matrix(3.34218 10.3384 -7.67086 2.47982 20.494 12.832)"><stop offset=".699" stop-color="#BFA055" stop-opacity="0"/><stop offset="1" stop-color="#BFA055"/></radialGradient><radialGradient id="paint7_radial_34:4037" cx="0" cy="0" r="1" gradientUnits="userSpaceOnUse" gradientTransform="matrix(2.51068 1.34636 -1.59639 2.97693 9.9 .985)"><stop offset=".58" stop-color="#BFA055"/><stop offset="1" stop-color="#BFA055" stop-opacity="0"/></radialGradient><radialGradient id="paint8_radial_34:4037" cx="0" cy="0" r="1" gradientUnits="userSpaceOnUse" gradientTransform="rotate(-157.19 8.755 1.439) scale(8.90992 5.00741)"><stop offset=".699" stop-color="#BFA055" stop-opacity="0"/><stop offset="1" stop-color="#BFA055"/></radialGradient><radialGradient id="paint9_radial_34:4037" cx="0" cy="0" r="1" gradientUnits="userSpaceOnUse" gradientTransform="matrix(2.61492 0 0 3.19883 8.758 3.584)"><stop offset=".702" stop-color="#BFA055" stop-opacity="0"/><stop offset="1" stop-color="#BFA055"/></radialGradient><radialGradient id="paint10_radial_34:4037" cx="0" cy="0" r="1" gradientUnits="userSpaceOnUse" gradientTransform="rotate(-164.942 4.74 3.545) scale(4.90448 4.5897)"><stop offset=".66" stop-color="#BFA055" stop-opacity="0"/><stop offset="1" stop-color="#BFA055"/></radialGradient><radialGradient id="paint11_radial_34:4037" cx="0" cy="0" r="1" gradientUnits="userSpaceOnUse" gradientTransform="matrix(5.1011 .7018 -.98615 7.16788 7.235 12.935)"><stop offset=".598" stop-color="#BFA055" stop-opacity="0"/><stop offset="1" stop-color="#BFA055"/></radialGradient></defs></svg>
